X:67
T:Ivy House,The. WM.067
M:C
L:1/8
Q:1/2=100
S:Wm.Mittell’s MS, New Romney,Kent,1799
R:.Country Dance
O:England
A:Kent
Z:vmp.Chris Partington
K:D
dAdA FAd2|fafd cecA|dAdA FAdf|gedc d2[D2d2]:|!
|:a(dcd) b(dcd)|adfd cecA|adfd bdgb|(ba)gff2e2|!
dAdA FAd2|fafd cecA|dAdA|FAdf|(ge)dcd2[D2d2]:|

